X:60
T:La Rochelle.
T:John Malchair's Third Collection of Tunes
%%VWML:Malchair-3619-p60
F:https://www.vwml.org/record/Malchair/3619/p60
F:www.vwml.org/topics/historic-dance-and-tune-books/Malchair
Z:Eric Conrad Feb 2020
M:2/4
L:1/16
K:D
a2 | a2f2f2a2 | a2f2f2a2 | g2g2g2g2 | (g4 f2)f2 | \
 f2d2d2f2 | f2d2d2f2 | g2e2d2c2 | (c4 d2) ||
a2 | c2c2c2c2 | d6 (ef) | g2g2g2g2 | (g4 f2)a2 | \
 c2c2c2c2 | d6 (ef) | g2e2d2c2 | d6 |]
W:Played by a Piedemontese Girl on a Cymbal in Oxford Streets. December 22. 1784.
W:
W:Play all these Notes upp on the 2d string of the violin and lett the 3d string serve as a drone to them.
W:Lay a large Kay behinde the bridge, this wil give the sound of a Cymbal.

W:W:% Using this W: as a space between tunes

%%%%%%%%%%%%%%%%%%%%%%%%%%%%%%%%%%%%%%%%%%%%%%%%%%%%%%%%%%%%%%%%%%%%%%%%%%%%%%%%%%%%%%%%%%%%%
% I don't see a way of joining the tune above (one staff) with the following two-staff piece.
% Joining them confuses both abcm2ps and abc2midi. -- Eric
%%%%%%%%%%%%%%%%%%%%%%%%%%%%%%%%%%%%%%%%%%%%%%%%%%%%%%%%%%%%%%%%%%%%%%%%%%%%%%%%%%%%%%%%%%%%%

